X: 10036
T: Dic Sion Dafydd
R: polka
M: 2/4
K: Gmajor
|:FF F>E|DF AF|E>F ED|EF GG|
FF F>E|DF AF|EB BA|BE E2:|
|:F>D F>D|FA AG/F/|G>E G>E|GB BA/G/|
F>D F>D|FA AG/F/ EB BA|BE E2:|

